X:3
T:Cripple Creek
C:Traditional
N: Transcribed by Mike Herlihy
R:bluegrass
L:1/8
Q:1/4=204
M:4/4
K:A
fg |: "A"a2 a2 e2 c2 | "D"d2 f2 "A"e4 | c2 c2 B2 A2 |1 "E"F2 B2 "A"A2 fg :|2 "E"F2 B2 "A"A4 |] 
|:{B}"A"c2 B2 A4 | {B}c4 E4 | {B}c2 {B}c2 B2 A2 | "E"EF AB "A"A4 :| 

